X:245
T:Crosses of Annagh, The
T:Unknown Reel 68B
M:C|
L:1/8
R:Reel
Z:Kevin Gow
K:ADor
E~A3 GABd| e~a3 gedB|G2GB ABGE|DEBG ABGF|
E~A3 GABd| e~a3 gedB|G2B/2c/2d gedB|GABG A3z:|
||:e~a3 bage|a2ba gedB|d2Bd ef ge|agab ged2|
e~a3 bage|a2ba gedB|d2B/2c/2d gedB|GABG A3z:||
"Var. M 4"D3B ABGF|
